static/assets/images/icons/invisible.svg

<svg width="256" height="256" viewBox="0 0 256 256" fill="none" xmlns="http://www.w3.org/2000/svg">
<path fill-rule="evenodd" clip-rule="evenodd" d="M237.891 117.346C205.897 86.7504 169.61 65.5835 128.069 65.8679C114.285 65.9622 100.267 68.2951 86.2123 73.0893C90.5004 77.3564 95.0882 81.924 99.9198 86.7367C108.261 84.5799 117.994 83.0346 128.069 83.0409C143.947 83.0509 160.825 87.7275 168.024 90.5587C174.438 93.0813 174.47 93.1023 175.938 95.6597C178.025 99.2975 180.23 105.63 181.188 110.738C182.204 116.151 182.228 125.76 181.238 130.837C179.393 140.298 175.168 148.853 169.209 155.844L189.843 176.432C206.82 167.925 223.15 155.872 238.306 140.601C244.754 134.105 244.506 123.671 237.891 117.346ZM190.512 155.525C197.725 143.782 200.409 121.162 197.725 106.3C203.15 109.683 211.528 116.378 218.628 122.868C222.149 126.086 222.185 131.495 218.64 134.686C211.654 140.974 201.164 149.31 190.512 155.525Z" fill="black"/>
<path d="M151.456 169.504L167.454 185.466L191.794 209.751C196.135 214.083 203.174 214.083 207.515 209.751C211.857 205.42 211.857 198.397 207.516 194.065L189.843 176.432L169.209 155.844L147.969 134.651L133.508 120.223C127.771 114.499 122.165 108.908 116.749 103.508C111.538 98.3122 106.502 93.2938 101.696 88.5057L99.9198 86.7367C95.0882 81.924 90.5004 77.3564 86.2123 73.0893L59.063 46.1952C54.7781 41.9506 47.8689 41.9328 43.5621 46.1552C39.1905 50.4413 39.1597 57.4614 43.4936 61.7855L64.328 82.5729L79.2467 97.4579L104.205 122.36L129.101 147.199L151.456 169.504Z" fill="black"/>
<path fill-rule="evenodd" clip-rule="evenodd" d="M53.8084 88.6188C41.6955 96.1584 29.6681 105.67 17.8537 117.298C11.414 123.636 11.3462 133.917 17.8661 140.173C47.2695 168.386 89.4645 191.217 130.063 191.217C138.321 191.217 146.57 190.37 154.755 188.709L139.478 173.561C139.354 173.588 139.229 173.613 139.105 173.639C133.055 174.87 123.957 174.982 118.223 173.896C100.008 170.445 84.207 157.478 77.6752 140.623C73.946 130.998 73.1508 120.071 75.1948 109.824L53.8084 88.6188ZM36.3687 134.022C33.2837 130.989 33.0666 126.105 36.1065 123.027C42.5136 116.54 50.2135 111.374 58.1353 106.635C53.0398 133.327 61.0163 148.76 65.6128 155.537C55.0801 150.678 44.2954 141.815 36.3687 134.022Z" fill="black"/>
<path d="M150.502 124.117C150.502 111.331 140.124 100.966 127.321 100.966C123.513 100.966 119.919 101.883 116.749 103.508C122.165 108.908 127.771 114.499 133.508 120.223L147.969 134.651C149.588 131.491 150.502 127.91 150.502 124.117Z" fill="black"/>
</svg>

<svg xmlns="http://www.w3.org/2000/svg" fill="none" viewBox="0 0 256 256"><path fill="#000" fill-rule="evenodd" d="M237.891 117.346C205.897 86.75 169.61 65.584 128.069 65.868c-13.784.094-27.802 2.427-41.857 7.221 4.288 4.267 8.876 8.835 13.708 13.648 8.341-2.157 18.074-3.702 28.149-3.696 15.878.01 32.756 4.687 39.955 7.518 6.414 2.522 6.446 2.543 7.914 5.1 2.087 3.638 4.292 9.971 5.25 15.079 1.016 5.413 1.04 15.022.05 20.099a54.6 54.6 0 0 1-12.029 25.007l20.634 20.588c16.977-8.507 33.307-20.56 48.463-35.831 6.448-6.496 6.2-16.93-.415-23.255m-47.379 38.179c7.213-11.743 9.897-34.363 7.213-49.225 5.425 3.383 13.803 10.078 20.903 16.568 3.521 3.218 3.557 8.627.012 11.818-6.986 6.288-17.476 14.624-28.128 20.839" clip-rule="evenodd"/><path fill="#000" d="m151.456 169.504 15.998 15.962 24.34 24.285c4.341 4.332 11.38 4.332 15.721 0 4.342-4.331 4.342-11.354.001-15.686l-17.673-17.633-20.634-20.588-21.24-21.193-14.461-14.428a68624 68624 0 0 0-31.812-31.717l-1.776-1.77c-4.832-4.812-9.42-9.38-13.708-13.647L59.063 46.195c-4.285-4.244-11.194-4.262-15.5-.04-4.373 4.286-4.403 11.306-.07 15.63l20.835 20.788 14.919 14.885 24.958 24.902 24.896 24.839z"/><path fill="#000" fill-rule="evenodd" d="M53.808 88.619c-12.112 7.54-24.14 17.051-35.954 28.679-6.44 6.338-6.508 16.619.012 22.875 29.404 28.213 71.599 51.044 112.197 51.044 8.258 0 16.507-.847 24.692-2.508l-15.277-15.148-.373.078c-6.05 1.231-15.148 1.343-20.882.257-18.215-3.451-34.016-16.418-40.548-33.273-3.729-9.625-4.524-20.552-2.48-30.799zm-17.44 45.403c-3.084-3.033-3.301-7.917-.262-10.995 6.408-6.487 14.108-11.653 22.03-16.392-5.096 26.692 2.88 42.125 7.477 48.902-10.533-4.859-21.318-13.722-29.244-21.515" clip-rule="evenodd"/><path fill="#000" d="M150.502 124.117c0-12.786-10.378-23.151-23.181-23.151a23.1 23.1 0 0 0-10.572 2.542c5.416 5.4 11.022 10.991 16.759 16.715l14.461 14.428a23.04 23.04 0 0 0 2.533-10.534"/></svg>
